%
N1(DFS,P4044,1F1E)
N2 ( PART NAME=skin1 1F1E )
N3 ( MACHINE=L2503 LASER CAT )
N4 ( X SHEET WIDTH=115. )
N5 ( Y SHEET HEIGHT=35. )
N6 ( MATERIAL=Teksoft English Defaults )
N7 ( THICKNESS=.048 )
/N8Q20
N9G801[2122001]
/N10G60X0Y0 (ENTER ZERO OFFSET)
N11G24L12
N12G00X3.422Y1.445
N13Q23
N14X1.445Y3.413
N15Q23
N16Y11.012
N17Q23
N18Y18.61
N19Q23
N20Y26.209
N21Q23
N22X3.413Y28.184
N23Q23
N24X9.328
N25Q23
N26X15.243
N27Q23
N28X21.157
N29Q23
N30X27.072
N31Q23
N32X32.987
N33Q23
N34X38.901
N35Q23
N36X44.815
N37Q23
N38X50.73
N39Q23
N40X56.645
N41Q23
N42X62.559
N43Q23
N44X68.474
N45Q23
N46X74.389
N47Q23
N48X80.303
N49Q23
N50X82.28Y26.216
N51Q23
N52Y18.617
N53Q23
N54Y11.019
N55Q23
N56Y3.42
N57Q23
N58X82.91Y4.043
N59Q23
N60Y11.222
N61Q23
N62Y18.4
N63Q23
N64Y25.579
N65Q23
N66X84.879Y28.184
N67Q23
N68X92.451
N69Q23
N70X100.023
N71Q23
N72X107.595
N73Q23
N74X109.555Y26.247
N75Q23
N76Y23.216
N77Q23
N78Y22.369
N79Q23
N80Y18.617
N81Q23
N82Y11.019
N83Q23
N84Y7.274
N85Q23
N86Y6.427
N87Q23
N88Y3.396
N89Q23
N90X107.587Y1.445
N91Q23
N92X100.015
N93Q23
N94X92.443
N95Q23
N96X84.87
N97Q23
N98X80.312
N99Q23
N100X74.397
N101Q23
N102X68.483
N103Q23
N104X62.568
N105Q23
N106X56.654
N107Q23
N108X50.739
N109Q23
N110X44.824
N111Q23
N112X38.91
N113Q23
N114X32.995
N115Q23
N116X27.08
N117Q23
N118X21.166
N119Q23
N120X15.251
N121Q23
N122X9.337
N123Q23
N124X110.214Y28.677
N125 G801[2122001]
N126 Q25
N127G01Y28.796
N128X110.107Y28.808
N129X110.119Y28.796
N130X110.131Y28.76
N131Y28.724
N132X110.119Y28.689
N133X110.095Y28.665
N134X110.06Y28.653
N135X110.036
N136X110.Y28.665
N137X109.976Y28.689
N138X109.964Y28.724
N139Y28.76
N140X109.976Y28.796
N141X109.988Y28.808
N142X110.012Y28.82
N143Q28
N144G00X110.214Y28.57
N145 G801[2122001]
N146 Q25
N147G01Y28.439
N148X110.119Y28.51
N149Y28.474
N150X110.107Y28.451
N151X110.095Y28.439
N152X110.06Y28.427
N153X110.036
N154X110.Y28.439
N155X109.976Y28.462
N156X109.964Y28.498
N157Y28.534
N158X109.976Y28.57
N159X109.988Y28.582
N160X110.012Y28.593
N161Q28
N162G00X110.214Y28.224
N163 G801[2122001]
N164 Q25
N165G01Y28.343
N166X110.107Y28.355
N167X110.119Y28.343
N168X110.131Y28.308
N169Y28.272
N170X110.119Y28.236
N171X110.095Y28.212
N172X110.06Y28.201
N173X110.036
N174X110.Y28.212
N175X109.976Y28.236
N176X109.964Y28.272
N177Y28.308
N178X109.976Y28.343
N179X109.988Y28.355
N180X110.012Y28.367
N181Q28
N182G00X110.167Y27.851
N183 G801[2122001]
N184 Q25
N185G01X110.179Y27.828
N186X110.214Y27.792
N187X109.964
N188Q28
N189G00X110.214Y27.732
N190 G801[2122001]
N191 Q25
N192G01X109.964
N193Q28
N194G00X110.214
N195 G801[2122001]
N196 Q25
N197G01Y27.578
N198Q28
N199G00X110.095Y27.732
N200 G801[2122001]
N201 Q25
N202G01Y27.637
N203Q28
N204G00X110.167Y27.482
N205 G801[2122001]
N206 Q25
N207G01X110.179Y27.458
N208X110.214Y27.423
N209X109.964
N210Q28
N211G00X110.214Y27.363
N212 G801[2122001]
N213 Q25
N214G01X109.964
N215Q28
N216G00X110.214
N217 G801[2122001]
N218 Q25
N219G01Y27.208
N220Q28
N221G00X110.095Y27.363
N222 G801[2122001]
N223 Q25
N224G01Y27.268
N225Q28
N226G00X109.964Y27.363
N227 G801[2122001]
N228 Q25
N229G01Y27.208
N230Q28
N231G00X109.727Y23.339
N232 G801[2122011]
N233 Q24
N234G01X109.677
N235G801[2122000]
N236Y26.126
N237X109.941
N238Y23.339
N239X109.677
N240Q28
N241G00X109.727Y6.256
N242 G801[2122011]
N243 Q24
N244G01Y6.306
N245G801[2122000]
N246X109.941
N247Y3.519
N248X109.677
N249Y6.306
N250X109.727
N251Q28
N252G00X109.186Y6.256
N253 G801[2122011]
N254 Q24
N255G01X109.236
N256G801[2122000]
N257Y1.764
N258X96.247
N259Y1.784
N260Q28
N261G00X96.219
N262 G801[2122011]
N263 Q24
N264G01Y1.764
N265G801[2122000]
N266X83.229
N267Y5.452
N268G03X83.225Y5.456I-.004J0
N269G01X82.917
N270Y6.448
N271X83.225
N272G03X83.229Y6.452I0J.004
N273G01Y23.19
N274G03X83.225Y23.194I-.004J0
N275G01X82.917
N276Y24.186
N277X83.225
N278G03X83.229Y24.19I0J.004
N279G01Y27.865
N280X96.219
N281Y27.845
N282Q28
N283G00X96.247
N284 G801[2122011]
N285 Q24
N286G01Y27.865
N287G801[2122000]
N288X109.236
N289Y6.256
N290Q28
N291G00X82.108
N292 G801[2122011]
N293 Q24
N294G01X82.158
N295G801[2122000]
N296Y1.567
N297X62.026
N298Y1.587
N299Q28
N300G00X61.998
N301 G801[2122011]
N302 Q24
N303G01Y1.567
N304G801[2122000]
N305X41.863
N306X21.727
N307Y1.587
N308Q28
N309G00X21.699
N310 G801[2122011]
N311 Q24
N312G01Y1.567
N313G801[2122000]
N314X1.567
N315Y28.062
N316X21.699
N317Y28.042
N318Q28
N319G00X21.727
N320 G801[2122011]
N321 Q24
N322G01Y28.062
N323G801[2122000]
N324X41.863
N325X61.998
N326Y28.042
N327Q28
N328G00X62.026
N329 G801[2122011]
N330 Q24
N331G01Y28.062
N332G801[2122000]
N333X82.158
N334Y6.256
N335Q28
N336G00X83.036Y.496
N337 G801[2122011]
N338 Q24
N339G01X82.986
N340G801[2122000]
N341X82.108
N342X55.514
N343Y.476
N344Q28
N345G00X55.486
N346 G801[2122011]
N347 Q24
N348G01Y.496
N349G801[2122000]
N350X28.014
N351Y.476
N352Q28
N353G00X27.986
N354 G801[2122011]
N355 Q24
N356G01Y.496
N357G801[2122000]
N358X.5
N359G02X.496Y.5I0J.004
N360G01Y14.801
N361X.476
N362Q28
N363G00Y14.829
N364 G801[2122011]
N365 Q24
N366G01X.496
N367G801[2122000]
N368Y29.129
N369G02X.5Y29.133I.004J0
N370G01X27.986
N371Y29.153
N372Q28
N373G00X28.014
N374 G801[2122011]
N375 Q24
N376G01Y29.133
N377G801[2122000]
N378X55.5
N379X82.986
N380Y29.153
N381Q28
N382G00X83.014
N383 G801[2122011]
N384 Q24
N385G01Y29.133
N386G801[2122000]
N387X110.5
N388G02X110.504Y29.129I0J-.004
N389G01Y14.829
N390X110.524
N391Q28
N392G00Y14.801
N393 G801[2122011]
N394 Q24
N395G01X110.504
N396G801[2122000]
N397Y.5
N398G02X110.5Y.496I-.004J0
N399G01X83.014
N400Y.446
N401Q28
/N402Q26
/N403G00X0
N404M30
%
