%
N1(DFS,P1,)
N2 ( PART NAME=DXFTESTTMPM )
N3 ( MACHINE=L2503 LASER CAT )
N4 ( X SHEET WIDTH=SW01 )
N5 ( Y SHEET HEIGHT=SW02 )
N6 ( MATERIAL=Teksoft English Defaults )
N7 ( THICKNESS=.048 )
/N8Q20
N9G801[2122001]
/N10G60X0Y0 (ENTER ZERO OFFSET)
N11G24L12
N12G00Xx001Yy001
N13Q23
N14Xx002Yy002
N15Q23
N16Xx003Yy003
N17Q23
N18Xx004Yy004
N19Q23
N20Xx005Yy005
N21Q23
N22Xx006Yy006
N23Q23
N24Y8.899(my test only goes to here)
N25Q23
N26Y14.424
N27Q23
N28Y19.949
N29Q23
N30X3.374Y21.831
N31Q23
N32X8.137
N33Q23
N34X12.901
N35Q23
N36X17.665
N37Q23
N38X22.429
N39Q23
N40X27.192
N41Q23
N42X31.956
N43Q23
N44X33.83Y19.964
N45Q23
N46Y14.439
N47Q23
N48Y8.914
N49Q23
N50Y3.389
N51Q23
N52X32.294Y1.507
N53Q23
N54X30.294
N55Q23
N56X28.931
N57Q23
N58X27.199
N59Q23
N60X22.436
N61Q23
N62X17.672
N63Q23
N64X1.679Y1.629
N65 G801[2122011]
N66 Q24
N67G01X1.629
N68G801[2122000]
N69Y21.709
N70X33.708
N71Y1.629
N72X1.629
N73Q28
N74G00X.496Y.45
N75 G801[2122011]
N76 Q24
N77G01Y.5
N78G801[2122000]
N79Y22.838
N80G02X.5Y22.842I.004J0
N81G01X34.837
N82G02X34.841Y22.838I0J-.004
N83G01Y.5
N84G02X34.837Y.496I-.004J0
N85G01X1.679
N86X.5
N87G02X.496Y.5I0J.004
N88G01X.446
N89Q28
/N90Q26
/N91G00X0
N92M30
%
