%
N1(DFS,P1000,test)
N2 ( PART NAME=smallboxtest_r12_lt22big )
N3 ( MACHINE=L2503 LASER CAT )
N4 ( X SHEET WIDTH=22. )
N5 ( Y SHEET HEIGHT=22. )
N6 ( MATERIAL=Teksoft English Defaults )
N7 ( THICKNESS=.048 )
/N8Q20
N9G801[2122001]
/N10G60X0Y0 (ENTER ZERO OFFSET)
N11G24L12
N12G00X6.772Y.815
N13Q23
N14X2.697
N15Q23
N16X.815Y2.697
N17Q23
N18Y6.772
N19Q23
N20Y10.839
N21Q23
N22Y14.921
N23Q23
N24Y18.996
N25Q23
N26X2.261Y20.878
N27Q23
N28X6.772
N29Q23
N30X10.839
N31Q23
N32X14.921
N33Q23
N34X19.432
N35Q23
N36X20.878Y18.996
N37Q23
N38Y14.921
N39Q23
N40Y10.854
N41Q23
N42Y6.772
N43Q23
N44Y2.697
N45Q23
N46X18.996Y.815
N47Q23
N48X14.921
N49Q23
N50X10.854
N51Q23
N52X4.137Y20.79
N53 G801[2122001]
N54 Q25
N55G01Y20.802
N56X4.149Y20.826
N57X4.161Y20.838
N58X4.185Y20.85
N59X4.232
N60X4.256Y20.838
N61X4.268Y20.826
N62X4.28Y20.802
N63Y20.778
N64X4.268Y20.755
N65X4.244Y20.719
N66X4.125Y20.6
N67X4.292
N68Q28
N69G00X4.518Y20.814
N70 G801[2122001]
N71 Q25
N72G01X4.494Y20.838
N73X4.459Y20.85
N74X4.411
N75X4.375Y20.838
N76X4.352Y20.814
N77Y20.79
N78X4.363Y20.767
N79X4.375Y20.755
N80X4.399Y20.743
N81X4.471Y20.719
N82X4.494Y20.707
N83X4.506Y20.695
N84X4.518Y20.671
N85Y20.636
N86X4.494Y20.612
N87X4.459Y20.6
N88X4.411
N89X4.375Y20.612
N90X4.352Y20.636
N91Q28
N92G00X10.822Y1.538
N93 G801[2122011]
N94 Q24
N95G01Y1.488
N96G801[2122000]
N97X1.488
N98Y20.205
N99X20.205
N100Y1.488
N101X10.87
N102Q28
N103G00X.496Y.45
N104 G801[2122011]
N105 Q24
N106G01Y.5
N107G801[2122000]
N108Y21.193
N109G02X.5Y21.197I.004J0
N110G01X21.193
N111G02X21.197Y21.193I0J-.004
N112G01Y.5
N113G02X21.193Y.496I-.004J0
N114G01X10.822
N115X.5
N116G02X.496Y.5I0J.004
N117G01X.446
N118Q28
/N119Q26
/N120G00X0
N121M30
%
